X:1
T:Title
%%score { ( 1 3 4 ) | ( 2 5 ) }
L:1/8
Q:1/4=94
M:4/4
K:Bb
V:1 treble nm="Grand Piano"
V:3 treble 
V:4 treble 
V:2 bass 
V:5 bass 
V:1
 [DF]>[DF] [DF]2 G>G G2 | F>F F>D G4 | F>F [DF]>[DF] [B,EG]2 [B,DB]2 | [EA]6 z2 | E>E E2 G>G G2 | %5
w: George~Bennard * * * * *|||||
 F>F F>D G4 | F>F F>F [=EG]2 [Ec]2 | c6 z2 | [Fd]>[Fd] [Fd]>[Fd] c2 c2 | B6[K:bass] z2 | %10
w: |||||
 [DB]>[DB] [DB]>[DB] [B,FA]2 [B,EG]2 | [DF]6 z2 | G>G G>G A2 A2 | B2 c2 [Fd]2 [Gc]2 | %14
w: ||||
 [DFB]4 [EFA]4 | [DFB]6 z2 |] %16
w: ||
V:2
 [B,,B,]>[B,,B,] [B,,B,]2 [E,B,E]>[E,B,E] [E,B,E]2 | [F,B,D]>[F,=B,D] [F,B,D]>[F,A,] [=E,B,_D]4 | %2
 [F,B,D]>[F,B,D] [B,,B,]>[B,,B,] E,2 G,2 | F,2 (3z G, z z4 | %4
 [F,A,]>[F,A,] [F,A,]2 [F,CE]>[F,CE] [F,A,E]2 | [F,B,D]>[F,B,D] [F,B,D]>[F,B,] [=E,B,_D]4 | %6
 [F,B,D]>[F,B,D] [F,B,D]>[F,B,D] [C,B,]2 [C,B,]2 | [F,A,F]2 [G,B,]2 (3F,-[F,G,]F, (3E,D,C, | %8
 [B,,B,]>[B,,B,] [B,,B,]>[B,,B,] [F,A,F]2 [F,A,E]2 | [B,D]6 z2 | %10
 [B,,F,]>[B,,F,] [B,,F,]>[B,,F,] D,2 E,2 | B,,2 D,F, B,2 z2 | %12
 [E,B,E]>[E,B,E] [E,B,E]>[E,B,E] [F,E]2 [^F,CE]2 | [G,B,D]2 [F,A,F]2 [B,,B,]2 [E,B,]2 | F,4 F,,4 | %15
 B,,6 z2 |] %16
V:3
 x8 | x8 | x8 | C4 z4 | x8 | x8 | x8 | z2 =E2 [A,F]2 z2 | x8 | z2[K:bass] F,D, B,,2 z2 | x8 | %11
 B,4 z4 | x8 | x8 | x8 | x8 |] %16
V:4
 x8 | x8 | x8 | z2 (3:2:2z2 A, C2 z2 | x8 | x8 | x8 | x8 | x8 | x2[K:bass] x6 | x8 | x8 | x8 | x8 | %14
 x8 | x8 |] %16
V:5
 x8 | x8 | x8 | z2 F,4 z2 | x8 | x8 | x8 | x8 | x8 | x8 | x8 | x8 | x8 | x8 | x8 | x8 |] %16

